X:0344
M:C
L:1/8
Q:1/2=104
K:D
dcdA  B2AG|   F2ED E/E/E E2|dcdA    B2AG|FDEF D/D/D D2:|
dcdA TB2de|{g}f2ed e/e/e ea|gfed {c}B2AG|EDEF D/D/D D2:|

